src/aitjes/02.svg

<svg xmlns="http://www.w3.org/2000/svg" width="512" height="512"><path d="M16 .75c0 .413 1.105 4.575 2.457 9.25 1.352 4.675 3.161 14.049 4.021 20.831.998 7.865 2.314 13.802 3.636 16.392 2.826 5.539 9.624 12.626 20.571 21.442 11.639 9.374 21.542 20.043 24.759 26.675 1.852 3.817 2.766 7.978 3.511 15.986.555 5.954 1.512 12.696 2.128 14.983 4.033 14.978 20.788 35.907 33.977 42.441 3.608 1.787 7.32 3.25 8.25 3.25 2.231 0 2.191.157-1.361 5.421-4.833 7.16-10.932 21.004-12.487 28.345-2.565 12.105-1.711 22.667 3.609 44.608 1.836 7.571 3.809 20.748 5.444 36.368 2.826 26.983 3.392 28.929 10.4 35.711 2.247 2.174 4.085 4.332 4.085 4.796 0 .463-1.979 4.985-4.398 10.047-8.625 18.05-7.506 22.11 9.641 34.989 10.172 7.641 25.42 22.331 29.405 28.33 1.127 1.697 1.171 2.685.222 5-.665 1.622-1.2 7.918-1.222 14.385-.032 9.455.363 12.641 2.223 17.917 3.78 10.721 9.919 18.33 17.97 22.276 4.145 2.031 6.58 2.34 22.057 2.795l17.398.512 1.35 4.64c2.81 9.655 16.365 20.832 25.288 20.851 10.946.023 21.604-10.231 25.604-24.635.215-.776 5.405-1.264 16.14-1.518 14.448-.342 16.249-.59 20.734-2.856 11.011-5.563 20.914-17.644 24.595-30.006 2.472-8.301 2.651-21.397.396-28.991l-1.597-5.378 7.039-6.553c7.942-7.395 9.588-10.205 10.575-18.054.932-7.418 6.793-24.71 11.248-33.188 1.996-3.799 8.279-13.298 13.961-21.109C394.514 293.49 398 285.096 398 267.648c0-10.976-1.514-18.093-5.91-27.789-2.888-6.37-2.948-6.844-2.915-22.932.037-17.643-1.373-27.642-5.127-36.345-2.15-4.984-1.753-6.524 1.691-6.567 2.388-.029 14.808-5.427 19.761-8.588 9.695-6.186 19.762-18.455 26.107-31.816 2.856-6.014 3.766-9.569 4.924-19.244.781-6.527 1.88-13.474 2.442-15.437 2.193-7.662 12.932-19.832 29.065-32.937 16.549-13.443 18.614-17.426 22.458-43.314.862-5.801 2.453-13.123 3.535-16.27C495.114 3.262 496 .532 496 .343 496 .155 478.751 0 457.669 0h-38.331l-1.395 2.606c-2.366 4.422-11.308 11.701-19.525 15.894-19.908 10.16-27.681 21.326-41.768 60-7.535 20.689-12.103 32.016-14.204 35.223l-1.47 2.244-6.738-5.054c-15.135-11.352-31.556-19.215-48.174-23.067-11.256-2.609-36.374-3.556-49.76-1.876-22.517 2.825-42.877 10.84-61.236 24.106l-8.432 6.093-1.768-2.335c-2.957-3.906-7.481-13.775-11.382-24.834-10.746-30.464-15.839-42.226-22.518-52-5.062-7.408-7.755-9.76-19.468-17-11.221-6.936-14.391-9.613-18.648-15.75L89.904 0H52.952C32.628 0 16 .337 16 .75m226.661 91.778c-13.951 1.687-23.584 3.854-32.695 7.353l-7.301 2.804 5.918.681c13.812 1.588 26.801 12.693 30.985 26.491 4.965 16.374 2.528 30.125-11.809 66.643-15.892 40.475-27.394 84.086-38.771 147-6.741 37.281-6.992 38.267-13.854 54.538-5.038 11.945-6.417 19.917-5.078 29.354 1.715 12.098 7.4 21.76 15.121 25.698 3.094 1.579 6.733 2.13 17.19 2.602 19.142.865 19.134.868 25.133-8.844 2.75-4.452 5.127-8.421 5.283-8.82.156-.4-3.263-1-7.597-1.334-11.651-.899-18.56-3.8-25.272-10.613-6.53-6.628-8.914-12.415-8.914-21.633 0-8.022 1.147-11.021 10.876-28.448 6.437-11.531 9.325-15.634 14.104-20.038l6.009-5.538 2.025-18.462c1.113-10.154 2.445-20.937 2.959-23.962.513-3.025 2.551-19 4.528-35.5 4.204-35.094 6.545-52.292 10.481-77 1.578-9.9 3.413-22.95 4.079-29 1.422-12.917 2.958-17.5 5.865-17.5 3.427 0 4.928 3.987 6.591 17.514.878 7.142 2.709 20.636 4.068 29.986 1.36 9.35 3.361 23.194 4.449 30.765 2.009 13.99 8.987 81.734 11.045 107.235l1.13 14 6.351 6.287c9.711 9.613 23.567 33.609 25.426 44.032 2.206 12.367-2.396 23.776-12.357 30.636-6.538 4.503-12.596 6.392-23.912 7.453-4.831.454-8.992 1.034-9.248 1.29-.257.256 1.561 4.029 4.039 8.384l4.506 7.918 5.743.613c3.159.337 10.243.386 15.743.11 11.7-.589 15.013-1.93 22.306-9.034 5.69-5.542 9.342-12.112 11.62-20.905 2.842-10.968 2.037-16.443-4.981-33.851-2.845-7.056-4.523-14.429-8.507-37.362-7.433-42.784-9.486-52.81-17.521-85.571-7.731-31.518-13.49-50.45-22.66-74.5-7.445-19.527-10.351-29.023-11.824-38.642-1.079-7.052-1.009-9.245.555-17.297 1.514-7.794 2.443-10.106 6.011-14.952 8.128-11.042 20.715-17.609 33.749-17.609 4.261 0 7.749-.099 7.75-.22.009-.887-16.949-7.764-22.998-9.326-5.97-1.543-32.863-5.258-35-4.836-.275.054-5.378.689-11.339 1.41M251.719 181c-.29.825-1.003 5.1-1.585 9.5-.581 4.4-1.958 14.3-3.06 22-3.076 21.514-6.916 49.71-8.58 63-3.013 24.076-7.494 63.478-7.494 65.901v2.488l5.75-2.694c8.104-3.796 19.017-3.788 28.144.021l6.395 2.668-.612-11.192C269.019 302.375 253.29 176.524 251.719 181m-54.531 21.039c-9.064 8.077-16.511 9.683-26.895 5.798-8.401-3.143-18.119-3.026-25.339.306-11.259 5.196-16.954 12.64-16.954 22.161 0 14.357 10.404 29.606 22.731 33.316 8.881 2.672 21.858-1.847 28.962-10.088 8.21-9.524 16.648-27.388 20.402-43.197 2.851-12.002 2.47-13.088-2.907-8.296m136.535 5.855C320.95 212.109 312 222.589 312 233.33c0 11.232 5.228 18.976 16.654 24.669 9.291 4.63 17.234 4.825 25.52.626 7.697-3.9 12.3-7.875 15.577-13.449 2.269-3.859 2.737-5.812 2.682-11.176-.081-7.824-2.236-12.841-7.861-18.3-8.767-8.507-20.063-11.366-30.849-7.806M150 218.792c-5.214 2.847-8 7.533-8 13.455 0 12.733 10.928 20.726 22.364 16.358 11.76-4.491 15.081-17.917 6.664-26.941-3.645-3.907-4.113-4.102-10.67-4.434-5.338-.271-7.633.075-10.358 1.562m184.45-.385c-9.31 4.055-12.32 16.84-5.791 24.599C339.115 255.433 359 248.677 359 232.698c0-5.166-2.86-10.013-7.922-13.424-3.902-2.63-11.653-3.034-16.628-.867m12.959 10.969c-.847 2.208.28 3.335 1.808 1.807.902-.902.905-1.461.016-2.35-.89-.89-1.324-.761-1.824.543M165 229.81c0 .537.713 1.249 1.584 1.584.973.373 1.431.15 1.187-.581-.498-1.495-2.771-2.318-2.771-1.003m84.813 196.873c.721.289 1.584.253 1.916-.079.332-.332-.258-.568-1.312-.525-1.165.048-1.402.285-.604.604" fill-rule="evenodd"/></svg>

<svg xmlns="http://www.w3.org/2000/svg" width="512" height="512" viewBox="0 0 512 512" version="1.1">
	<path d="M 16 0.750 C 16 1.163, 17.105 5.325, 18.457 10 C 19.809 14.675, 21.618 24.049, 22.478 30.831 C 23.476 38.696, 24.792 44.633, 26.114 47.223 C 28.940 52.762, 35.738 59.849, 46.685 68.665 C 58.324 78.039, 68.227 88.708, 71.444 95.340 C 73.296 99.157, 74.210 103.318, 74.955 111.326 C 75.510 117.280, 76.467 124.022, 77.083 126.309 C 81.116 141.287, 97.871 162.216, 111.060 168.750 C 114.668 170.537, 118.380 172, 119.310 172 C 121.541 172, 121.501 172.157, 117.949 177.421 C 113.116 184.581, 107.017 198.425, 105.462 205.766 C 102.897 217.871, 103.751 228.433, 109.071 250.374 C 110.907 257.945, 112.880 271.122, 114.515 286.742 C 117.341 313.725, 117.907 315.671, 124.915 322.453 C 127.162 324.627, 129 326.785, 129 327.249 C 129 327.712, 127.021 332.234, 124.602 337.296 C 115.977 355.346, 117.096 359.406, 134.243 372.285 C 144.415 379.926, 159.663 394.616, 163.648 400.615 C 164.775 402.312, 164.819 403.300, 163.870 405.615 C 163.205 407.237, 162.670 413.533, 162.648 420 C 162.616 429.455, 163.011 432.641, 164.871 437.917 C 168.651 448.638, 174.790 456.247, 182.841 460.193 C 186.986 462.224, 189.421 462.533, 204.898 462.988 L 222.296 463.500 223.646 468.140 C 226.456 477.795, 240.011 488.972, 248.934 488.991 C 259.880 489.014, 270.538 478.760, 274.538 464.356 C 274.753 463.580, 279.943 463.092, 290.678 462.838 C 305.126 462.496, 306.927 462.248, 311.412 459.982 C 322.423 454.419, 332.326 442.338, 336.007 429.976 C 338.479 421.675, 338.658 408.579, 336.403 400.985 L 334.806 395.607 341.845 389.054 C 349.787 381.659, 351.433 378.849, 352.420 371 C 353.352 363.582, 359.213 346.290, 363.668 337.812 C 365.664 334.013, 371.947 324.514, 377.629 316.703 C 394.514 293.490, 398 285.096, 398 267.648 C 398 256.672, 396.486 249.555, 392.090 239.859 C 389.202 233.489, 389.142 233.015, 389.175 216.927 C 389.212 199.284, 387.802 189.285, 384.048 180.582 C 381.898 175.598, 382.295 174.058, 385.739 174.015 C 388.127 173.986, 400.547 168.588, 405.500 165.427 C 415.195 159.241, 425.262 146.972, 431.607 133.611 C 434.463 127.597, 435.373 124.042, 436.531 114.367 C 437.312 107.840, 438.411 100.893, 438.973 98.930 C 441.166 91.268, 451.905 79.098, 468.038 65.993 C 484.587 52.550, 486.652 48.567, 490.496 22.679 C 491.358 16.878, 492.949 9.556, 494.031 6.409 C 495.114 3.262, 496 0.532, 496 0.343 C 496 0.155, 478.751 -0, 457.669 -0 L 419.338 -0 417.943 2.606 C 415.577 7.028, 406.635 14.307, 398.418 18.500 C 378.510 28.660, 370.737 39.826, 356.650 78.500 C 349.115 99.189, 344.547 110.516, 342.446 113.723 L 340.976 115.967 334.238 110.913 C 319.103 99.561, 302.682 91.698, 286.064 87.846 C 274.808 85.237, 249.690 84.290, 236.304 85.970 C 213.787 88.795, 193.427 96.810, 175.068 110.076 L 166.636 116.169 164.868 113.834 C 161.911 109.928, 157.387 100.059, 153.486 89 C 142.740 58.536, 137.647 46.774, 130.968 37 C 125.906 29.592, 123.213 27.240, 111.500 20 C 100.279 13.064, 97.109 10.387, 92.852 4.250 L 89.904 0 52.952 0 C 32.628 0, 16 0.337, 16 0.750 M 242.661 92.528 C 228.710 94.215, 219.077 96.382, 209.966 99.881 L 202.665 102.685 208.583 103.366 C 222.395 104.954, 235.384 116.059, 239.568 129.857 C 244.533 146.231, 242.096 159.982, 227.759 196.500 C 211.867 236.975, 200.365 280.586, 188.988 343.500 C 182.247 380.781, 181.996 381.767, 175.134 398.038 C 170.096 409.983, 168.717 417.955, 170.056 427.392 C 171.771 439.490, 177.456 449.152, 185.177 453.090 C 188.271 454.669, 191.910 455.220, 202.367 455.692 C 221.509 456.557, 221.501 456.560, 227.500 446.848 C 230.250 442.396, 232.627 438.427, 232.783 438.028 C 232.939 437.628, 229.520 437.028, 225.186 436.694 C 213.535 435.795, 206.626 432.894, 199.914 426.081 C 193.384 419.453, 191 413.666, 191 404.448 C 191 396.426, 192.147 393.427, 201.876 376 C 208.313 364.469, 211.201 360.366, 215.980 355.962 L 221.989 350.424 224.014 331.962 C 225.127 321.808, 226.459 311.025, 226.973 308 C 227.486 304.975, 229.524 289, 231.501 272.500 C 235.705 237.406, 238.046 220.208, 241.982 195.500 C 243.560 185.600, 245.395 172.550, 246.061 166.500 C 247.483 153.583, 249.019 149, 251.926 149 C 255.353 149, 256.854 152.987, 258.517 166.514 C 259.395 173.656, 261.226 187.150, 262.585 196.500 C 263.945 205.850, 265.946 219.694, 267.034 227.265 C 269.043 241.255, 276.021 308.999, 278.079 334.500 L 279.209 348.500 285.560 354.787 C 295.271 364.400, 309.127 388.396, 310.986 398.819 C 313.192 411.186, 308.590 422.595, 298.629 429.455 C 292.091 433.958, 286.033 435.847, 274.717 436.908 C 269.886 437.362, 265.725 437.942, 265.469 438.198 C 265.212 438.454, 267.030 442.227, 269.508 446.582 L 274.014 454.500 279.757 455.113 C 282.916 455.450, 290 455.499, 295.500 455.223 C 307.200 454.634, 310.513 453.293, 317.806 446.189 C 323.496 440.647, 327.148 434.077, 329.426 425.284 C 332.268 414.316, 331.463 408.841, 324.445 391.433 C 321.600 384.377, 319.922 377.004, 315.938 354.071 C 308.505 311.287, 306.452 301.261, 298.417 268.500 C 290.686 236.982, 284.927 218.050, 275.757 194 C 268.312 174.473, 265.406 164.977, 263.933 155.358 C 262.854 148.306, 262.924 146.113, 264.488 138.061 C 266.002 130.267, 266.931 127.955, 270.499 123.109 C 278.627 112.067, 291.214 105.500, 304.248 105.500 C 308.509 105.500, 311.997 105.401, 311.998 105.280 C 312.007 104.393, 295.049 97.516, 289 95.954 C 283.030 94.411, 256.137 90.696, 254 91.118 C 253.725 91.172, 248.622 91.807, 242.661 92.528 M 251.719 181 C 251.429 181.825, 250.716 186.100, 250.134 190.500 C 249.553 194.900, 248.176 204.800, 247.074 212.500 C 243.998 234.014, 240.158 262.210, 238.494 275.500 C 235.481 299.576, 231 338.978, 231 341.401 L 231 343.889 236.750 341.195 C 244.854 337.399, 255.767 337.407, 264.894 341.216 L 271.289 343.884 270.677 332.692 C 269.019 302.375, 253.290 176.524, 251.719 181 M 197.188 202.039 C 188.124 210.116, 180.677 211.722, 170.293 207.837 C 161.892 204.694, 152.174 204.811, 144.954 208.143 C 133.695 213.339, 128 220.783, 128 230.304 C 128 244.661, 138.404 259.910, 150.731 263.620 C 159.612 266.292, 172.589 261.773, 179.693 253.532 C 187.903 244.008, 196.341 226.144, 200.095 210.335 C 202.946 198.333, 202.565 197.247, 197.188 202.039 M 333.723 207.894 C 320.950 212.109, 312 222.589, 312 233.330 C 312 244.562, 317.228 252.306, 328.654 257.999 C 337.945 262.629, 345.888 262.824, 354.174 258.625 C 361.871 254.725, 366.474 250.750, 369.751 245.176 C 372.020 241.317, 372.488 239.364, 372.433 234 C 372.352 226.176, 370.197 221.159, 364.572 215.700 C 355.805 207.193, 344.509 204.334, 333.723 207.894 M 150 218.792 C 144.786 221.639, 142 226.325, 142 232.247 C 142 244.980, 152.928 252.973, 164.364 248.605 C 176.124 244.114, 179.445 230.688, 171.028 221.664 C 167.383 217.757, 166.915 217.562, 160.358 217.230 C 155.020 216.959, 152.725 217.305, 150 218.792 M 334.450 218.407 C 325.140 222.462, 322.130 235.247, 328.659 243.006 C 339.115 255.433, 359 248.677, 359 232.698 C 359 227.532, 356.140 222.685, 351.078 219.274 C 347.176 216.644, 339.425 216.240, 334.450 218.407 M 347.409 229.376 C 346.562 231.584, 347.689 232.711, 349.217 231.183 C 350.119 230.281, 350.122 229.722, 349.233 228.833 C 348.343 227.943, 347.909 228.072, 347.409 229.376 M 165 229.810 C 165 230.347, 165.713 231.059, 166.584 231.394 C 167.557 231.767, 168.015 231.544, 167.771 230.813 C 167.273 229.318, 165 228.495, 165 229.810 M 249.813 426.683 C 250.534 426.972, 251.397 426.936, 251.729 426.604 C 252.061 426.272, 251.471 426.036, 250.417 426.079 C 249.252 426.127, 249.015 426.364, 249.813 426.683" stroke="none" fill="black" fill-rule="evenodd"/>
</svg>
